X: 19313
T: Jack Coughlan's
R: reel
M: 4/4
K: Gmajor
c2 (3cBA ~G2GB|AE~E2 GEdB|c2 (3cBA gag/a/g/e/|dBAc BG~G2|
c2 (3cBA ~G2GB|AE~E2 GEdB|c2 (3cBA gag/a/g/e/|dBAd BGGE||
dcdE ~G2GA|BABd edBe|d2de gag/a/g/e/|dBAd BGGE|
dcde g2GA|(3^cBA Bd edBe|dBde gag/a/g/e/|dBAc BG~G2||

